X:46
T:Castlebar Races, The
R:jig
M:6/8
L:1/8
K:Gmaj
|:"Em"~G3 "G"dGG|"Em"edB "G"dBA|"Em"~G3 "G"deg|"Em"edB "G"dBA|
"Em"~G3 "G"dGG|"Em"edB "Bm"def|"Em"gfe "G"dBA|"Em"Bee "G"dBA:|
|:"Em"~g3 "Em"bge|"Bm"~f3 "D"afd|"Em"~g3 "Em"bge|"Em"edB "G"GBd|
"Em"~g3 "Em"bge|"Bm"~f3 "D"aga|"Em"bag "D"agf|"Em"efg "Em"edB:|
